X:1
T:Vere languores
T:Francesco Feroci
T:ed. by Jeffrey Quick
T:Vere languores
T:Feria sexta in parasceve
T:©2017
T:©2017
T:©2017
T:©2017
C:Francesco Feroci
Z:©2017
%%score [ 1 2 3 4 ]
L:1/8
Q:1/4=90
M:4/4
K:F
V:1 alto1 nm="Soprano" snm="S"
V:2 alto nm="Alto" snm="A"
V:3 tenor nm="Tenor" snm="T"
V:4 bass nm="Bass" snm="B"
V:1
 z8 G8 ||[Q:1/4=92]"^[  ]" [D_e]8 |[M:4/4] z8 | z8 | z4 G4- | G2 ^F4 F2 | G6 F2 | _E4 D4 | G4 d4- | %9
w: ||||Ve-|* re lan-|guo- res|no- stros,|lan- guo-|
 d2 d2 _e4 | d4 G4- | G4 D4 | z2 (G2- G^F G2) | ^F4 z4 | z2 d4 A2- | A2 B4 ^F2- | F2 (GA Bc d2) | %17
w: * res no-|stros i-|* pse|tu- * * *|lit|et do-|* lo- res|_ no- * * * *|
 G2 G4 D2 | (_E3 F) G2 d2 | _e6 d2 | c6 =B2- | B2 c4 A2- | A2 G2 (A2 B2- | B2 A2) B2 d2- | %24
w: stros, et do-|lo- * res do-|lo- res|no- stros|_ i- pse|_ por- ta- *|* * vit. do-|
 d2 c4 (BA) | B4 A4- | A4 z2 G2- | G2 F4 (GF) | _E4 D2 G2- | G2 E4 (F2- | FE F2) G4 | ^F4 z4 | %32
w: * lo- res _|no- stros|_ do-|* lo- res _|no- stros i-|* pse por-|* * * ta-|vit.|
 z2 d4 c2- | c2 B4 A2- | A2 (GA) B2 A2 | d2 G4 A2- | A2 (G4 ^F2) | G8 |] %38
w: i- pse|_ i- pse|_ por- * ta- vit.|i- pse por-|* ta- *|vit.|
V:2
 z8 D8 || [G,_A]8 |[M:4/4] z8 | z8 | z8 | z4 D4- | D2 B,4 (A,B,) | C2 C2 (B,3 A,) | G,2 G4 ^F2- | %9
w: |||||Ve-|* re lan- *|guo- res no- *|stros ve- re|
 F2 ^F2 G4- | G2 F2 _E4 | D4 z2 D2- | D2 D2 D4 | D4 z4 | z8 | z8 | z2 G4 D2 | _E6 =B,2 | %18
w: _ lan- guo-|* res no-|stros i-|* pse tu-|lit|||et do-|lo- res|
 (C3 D _EF G2- | G2 _A2 G4- | G2 F2) G4- | G2 G4 F2- | F2 E2 F4- | F4 F4 | F4 F2 D2 | z2 (G4 ^FE) | %26
w: no- * * * *||* * stros|_ i- pse|_ por- ta-|* vit.|do- lo- res|no- * *|
 ^F4 z4 | _E2 D4 D2- | D2 C4 =B,2- | B,2 C4 C2- | C2 (DC) (B,2 C2) | D4 z4 | z8 | z8 | z2 G4 F2- | %35
w: stros|do- lo- res|_ no- stros|_ i- pse|_ por- * ta- *|vit.|||i- pse|
 F2 (_ED) (E4 | D8) | D8 |] %38
w: _ por- * ta-||vit.|
V:3
 D12 B,4 || [D,_E]8 |[M:4/4] z8 | D6 B,2- | B,2 A,2 B,2 C2 | B,2 A,4 D2 | G,4 D4 | G,2 z2 G,2 D2- | %8
w: |||Ve- re|_ lan- guo- res|no- stros i-|pse tu-|lit lan- guo-|
 D2 C2 B,2 A,2- | A,2 (B,A,) G,4 | G,2 D4 C2- | C2 B,4 A,2 | B,8 | A,2 D4 A,2- | A,2 B,4 ^F,2- | %15
w: * res no- stros|_ lan- * guo-|res no- stros|_ i- pse|tu-|lit et do-|* lo- res|
 F,2 (G,A, B,C D2- | DCB,A, G,4-) | G,4 G,4- | G,4 z4 | z4 z2 G,2 | C2 (CD) _E2 D2- | D2 C4 C2- | %22
w: _ no- * * * *||* stros|_|do-|lo- res _ no- stros|_ i- pse|
 C2 B,2 (C2 D2 | C4) B,2 z2 | B,2 A,4 A,2 | D4 D4- | D4 z2 B,2- | B,2 B,2- (B,A,) G,2 | G,4 G,4- | %29
w: _ por- ta- *|* vit.|do- lo- res|no- stros|_ do-|* lo- * * res|no- stros|
 G,2 G,4 A,2- | A,2 (B,A,) G,4 | A,2 D4 C2- | C2 B,4 (A,2- | A,2 G,2) D,2 D2 | C4 B,4 | z2 D4 C2- | %36
w: _ i- pse|_ por- * ta-|vit. i- pse|_ por- ta-|* * vit. por-|ta- vit.|i- pse|
 C2 B,2 A,4 | =B,8 |] %38
w: _ por- ta-|vit.|
V:4
 G,12 ^F,4 || [G,,C]8 |[M:4/4] G,6 ^F,2- | F,2 ^F,2 G,4- | G,2 F,2 _E,4 | D,8 | z4 D,4 | %7
w: ||Ve- re|_ lan- guo-|* res no-|stros,|lan-|
 C,2 C,2 (G,3 F, | _E,4) D,4- | D,4 z2 C,2 | =B,,2 B,,2 C,4 | G,,2 G,4 ^F,2 | G,8 | D,4 z4 | z8 | %15
w: guo- res no- *|* stros,|_ lan-|guo- res no-|stros i- pse|tu-|lit||
 z2 G,4 D,2- | D,2 _E,4 =B,,2 | (C,3 D, _E,F, G,2) | C,2 C4 =B,2 | C6 B,2 | _A,4 G,4- | %21
w: et do-|* lo- res|no- * * * *|stros, et do-|lo- res|no- stros|
 G,2 E,4 F,2- | F,2 G,2 F,4- | F,4 B,,2 B,2- | B,2 F,4 ^F,2 | G,4 D,4- | D,4 z2 _E,2- | %27
w: _ i- pse|_ por- ta-|* vit. do-|* lo- res|no- stros|_ do-|
 E,2 B,,4 =B,,2 | C,4 G,,4- | G,,2 C,4 F,2- | F,2 B,,2 _E,4 | D,4 z4 | z8 | z2 G,4 F,2- | %34
w: * lo- res|no- stros|_ i- pse|_ por- ta-|vit.||i- pse|
 F,2 _E,2 (D,3 C, | =B,,4 C,4 | D,8) | G,,8 |] %38
w: _ por- ta- *|||vit.|

